X: 20281
T: Joey Beaton's
R: reel
M: 4/4
K: Aminor
B,|A,2 CD E2 DC|B,GDG B,G,G,B,|A,2 CD E2 DC|B,GDB, A,/A,/A, A,B,|
A,2 CD E2 DC|B,GDG B,G,G,B,|A,2 CD E2 DC|B,GDB, A,/A,/A, A,||
G|AGAB A2 G^F|EGDG B,G,G,B|AGAB A2 G^F|EGDB, A,/A,/A, A,B|
AGAB A2 G^F|EGDG B,G,G,B,|A,2 CD E2 DC|B,GDB, A,/A,/A, A,||
e|A/A/A Bd e2 dc|Bgdg BGGB|A/A/A Bd e2 dc|BgdB A/A/A Ae|
A/A/A Bd e2 dc|Bgdg BGGB|A/A/A Bd e2 dc|BgdB A/A/A A||
g|agab a2 g^f|egdg BGGg|agab a2 g^f|egdB A/A/A Ag|
agab a2 g^f|egdg BGGe|A/A/A Bd e2 dc|BgdB A/A/A A||

